X: 28
T: Faites de moy
N: Derived from Bus3021-Faites_de_moy.krn
C: Antoine Busnoys
%%abc-version 2.0
%%abcx-abcm2ps-target-version 5.9.1 (29 Sep 2008)
%%abc-creator hum2abc beta
%%abcx-conversion-date 2019/02/16 20:26:07
%%abc-edited-by Jesse Rodin
%%abc-edited-by Chris Gage 04-20-2015
%%abcx-initial-encoding-date 2015/05/03/
%%humdrum-veritas 4063683156
%%humdrum-veritas-data 4261265691
%%linebreak <none>
%%barnumbers 0
L: 1/4
M: 2/1
Q: 1/2=120
V: 1 clef=treble
V: 2 clef=treble-8
V: 3 clef=bass
K: F
[V:1] G6F2 | 
[V:2] G6A2 | 
[V:3] G,,8- | 
[V:1] G4E4 | 
[V:2] B4c4 | 
[V:3] G,,4C,4 | 
[V:1] D4G4- | 
[V:2] d4B4 | 
[V:3] B,,4G,,4 | 
[V:1] G2^FEF4 | 
[V:2] A8 | 
[V:3] D,8 | 
[V:1] G2B4A2 | 
[V:2] G6F2 | 
[V:3] G,,4z2D,2 | 
[V:1] G2FEF4- | 
[V:2] E4D4 | 
[V:3] E,2C,2D,2B,,2- | 
[V:1] F2G4F2 | 
[V:2] B6A2 | 
[V:3] B,,2G,,4D,2 | 
[V:1] D2E4F2 | 
[V:2] B2G2A2A2- | 
[V:3] B,,2C,2A,,2F,,2 | 
[V:1] E2D4^C2 | 
[V:2] A2F2E4 | 
[V:3] C,2D,2A,,4 | 
[V:1] D4B,4 | 
[V:2] D2G4D2 | 
[V:3] B,,4G,,4 | 
[V:1] C2D4C2- | 
[V:2] E2F2D2E2 | 
[V:3] C,2B,,4A,,2- | 
[V:1] C2B,2A,4 | 
[V:2] F2G4^F2 | 
[V:3] A,,2G,,2D,4 | 
[V:1] G,8 | 
[V:2] G8- | 
[V:3] G,,4z2G,2- | 
[V:1] z4D4 | 
[V:2] G8 | 
[V:3] G,2B,2G,2B,2 | 
[V:1] E4F4 | 
[V:2] z4D4 | 
[V:3] A,2G,2A,4 | 
[V:1] G4F4 | 
[V:2] E4F4 | 
[V:3] G,4D,4 | 
[V:1] D4A4- | 
[V:2] G4F2D2- | 
[V:3] B,4A,4 | 
[V:1] A4G4- | 
[V:2] D2F2C2G2- | 
[V:3] F,4G,2E,2 | 
[V:1] G2FEF4 | 
[V:2] G4A4 | 
[V:3] C,2E,2D,4 | 
[V:1] G4A4 | 
[V:2] G4F4 | 
[V:3] E,4F,2D,2- | 
[V:1] D2F2E4 | 
[V:2] B4c4 | 
[V:3] D,4C,4 | 
[V:1] D4C2D2 | 
[V:2] d2f2e2d2- | 
[V:3] B,,4C,2B,,2 | 
[V:1] E4D4 | 
[V:2] d2c2Bcd2- | 
[V:3] A,,4B,,4 | 
[V:1] z2G4F2 | 
[V:2] d2B2A4 | 
[V:3] G,,4D,4 | 
[V:1] G2D2G4 | 
[V:2] G2B3GB2 | 
[V:3] G,,8 | 
[V:1] F8 | 
[V:2] A8 | 
[V:3] D,8 | 
[V:1] z4F4 | 
[V:2] z4A4 | 
[V:3] z4D,4 | 
[V:1] E4F4 | 
[V:2] A2A4A2 | 
[V:3] A,,4D,4 | 
[V:1] G6F2 | 
[V:2] G2B4A2 | 
[V:3] G,,6A,,2 | 
[V:1] G2A2B4 | 
[V:2] G2FED2G2- | 
[V:3] B,,2C,2B,,A,,G,,2 | 
[V:1] A8 | 
[V:2] G2^F4E2 | 
[V:3] D,8 | 
[V:1] G2B4A2 | 
[V:2] G2z2G2F2 | 
[V:3] z2G,,4D,2 | 
[V:1] G2FED2A2- | 
[V:2] G2A2B2c2- | 
[V:3] E,2F,2G,2F,2- | 
[V:1] AGG4^F2 | 
[V:2] c2B2A4 | 
[V:3] F,2G,2D,4 | 
[V:1] G8 | 
[V:2] G8 | 
[V:3] z8 | 
[V:1] [M:3/1]z12 | 
[V:2] [M:3/1]z12 | 
[V:3] [M:3/1]G,,8A,,4 | 
[V:1] D8E4 | 
[V:2] z12 | 
[V:3] G,,4B,,4C,4 | 
[V:1] D4F4G4 | 
[V:2] D8E4 | 
[V:3] D,8G,4 | 
[V:1] A8G4 | 
[V:2] D4F4G4 | 
[V:3] F,4D,4E,4 | 
[V:1] F4E8 | 
[V:2] A8G4 | 
[V:3] D,4C,8 | 
[V:1] D8^C4 | 
[V:2] F4E8 | 
[V:3] D,4A,,8 | 
[V:1] D8z4 | 
[V:2] D6E2F4 | 
[V:3] A,6G,2A,4 | 
[V:1] D4E4F4 | 
[V:2] G8A4 | 
[V:3] G,4E,4D,4 | 
[V:1] G4E6D2 | 
[V:2] B4G8 | 
[V:3] G,,4C,6B,,2 | 
[V:1] F4E8 | 
[V:2] F4G4A4 | 
[V:3] D,4C,8 | 
[V:1] D4C8 | 
[V:2] B8A4 | 
[V:3] B,,4F,8 | 
[V:1] B,8z4 | 
[V:2] B4d6c2 | 
[V:3] B,,4G,,4A,,4 | 
[V:1] D4E4F4 | 
[V:2] B4A4A4 | 
[V:3] B,,4C,4D,4 | 
[V:1] G6E2^F4 | 
[V:2] G8A4 | 
[V:3] G,,2B,,4C,2A,,4 | 
[V:1] G4E4F4 | 
[V:2] B4c4A4 | 
[V:3] G,,4C,4D,4 | 
[V:1] D8E4 | 
[V:2] B4G8 | 
[V:3] B,,8G,4 | 
[V:1] F8G4 | 
[V:2] A4B8 | 
[V:3] F,4D,4E,4- | 
[V:1] A8F4 | 
[V:2] c4d8 | 
[V:3] E,4D,8 | 
[V:1] G4E4F4 | 
[V:2] B4c4A4 | 
[V:3] E,4C,4D,4 | 
[V:1] G4A4G2A2 | 
[V:2] B4c4_e4 | 
[V:3] B,,4A,,4C,4 | 
[V:1] B4A6G2 | 
[V:2] d4c6B2 | 
[V:3] G,,4F,6G,2 | 
[V:1] G8^F4 | 
[V:2] G4A8 | 
[V:3] E,4D,8 | 
[V:1] G12 |]  
[V:2] G12 |]  
[V:3] G,,12 |]  



